icons/desktop/16/custom-model-16.svg

<svg width="16" height="16" viewBox="0 0 16 16" fill="none" xmlns="http://www.w3.org/2000/svg">
<path fill-rule="evenodd" clip-rule="evenodd" d="M4.125 8.75C4.44869 8.75 4.81087 8.76271 5.20605 8.79785C6.3682 8.90203 7.25 9.88528 7.25 11.041V12.707C7.24999 13.7956 6.47719 14.7253 5.41895 14.9229L5.20312 14.9521C4.86606 14.9819 4.50584 15 4.125 15C3.80131 15 3.43913 14.9873 3.04395 14.9521C1.8818 14.848 1 13.8647 1 12.709V11.043C1.00002 9.88178 1.87978 8.90176 3.04688 8.79785L3.56934 8.7627C3.74917 8.75443 3.93449 8.75 4.125 8.75ZM4.125 10.25C3.7921 10.25 3.47642 10.2658 3.17969 10.292C2.7968 10.3261 2.50002 10.6482 2.5 11.043V12.709C2.5 13.0992 2.79903 13.4241 3.17676 13.458L3.67383 13.4902C3.83223 13.4969 3.9828 13.5 4.125 13.5C4.4579 13.5 4.77358 13.4842 5.07031 13.458L5.20996 13.4316C5.52301 13.3416 5.74999 13.0523 5.75 12.707V11.041C5.75 10.6997 5.52109 10.4087 5.21094 10.3184L5.07324 10.292C4.72671 10.2612 4.40911 10.25 4.125 10.25Z" fill="black"/>
<path d="M11.1836 9.30664C11.4087 8.73088 12.3423 8.73088 12.5674 9.30664L13.0693 10.5908L14.4053 11.1582C14.6911 11.2723 14.876 11.5456 14.876 11.8555C14.8758 12.1652 14.691 12.4377 14.4043 12.5518L13.1309 13.0576L12.5684 14.4023C12.4563 14.6902 12.1839 14.876 11.877 14.876L11.875 14.875C11.5671 14.875 11.2956 14.6893 11.1836 14.4023L10.6816 13.1182L9.3457 12.5508C9.05989 12.4367 8.875 12.1634 8.875 11.8535C8.87519 11.5438 9.06003 11.2713 9.34668 11.1572L10.6201 10.6514L10.6816 10.5898L11.1836 9.30664Z" fill="black"/>
<path fill-rule="evenodd" clip-rule="evenodd" d="M4.125 1C4.44869 1 4.81087 1.01271 5.20605 1.04785C6.3682 1.15203 7.25 2.13528 7.25 3.29102V4.95703C7.24999 6.04563 6.47719 6.97531 5.41895 7.17285L5.20312 7.20215C4.86606 7.23192 4.50584 7.25 4.125 7.25C3.80131 7.25 3.43913 7.23729 3.04395 7.20215C1.8818 7.09797 1 6.11472 1 4.95898V3.29297C1.00002 2.13178 1.87978 1.15176 3.04688 1.04785L3.56934 1.0127C3.74917 1.00443 3.93449 1 4.125 1ZM4.125 2.5C3.7921 2.5 3.47642 2.5158 3.17969 2.54199C2.7968 2.57608 2.50002 2.89818 2.5 3.29297V4.95898C2.5 5.34916 2.79903 5.67407 3.17676 5.70801L3.67383 5.74023C3.83223 5.7469 3.9828 5.75 4.125 5.75C4.4579 5.75 4.77358 5.7342 5.07031 5.70801L5.20996 5.68164C5.52301 5.59162 5.74999 5.30231 5.75 4.95703V3.29102C5.75 2.94971 5.52109 2.6587 5.21094 2.56836L5.07324 2.54199C4.72671 2.51118 4.40911 2.5 4.125 2.5Z" fill="black"/>
<path fill-rule="evenodd" clip-rule="evenodd" d="M11.875 1C12.1987 1 12.5609 1.01271 12.9561 1.04785C14.1182 1.15203 15 2.13528 15 3.29102V4.95703C15 6.04563 14.2272 6.97531 13.1689 7.17285L12.9531 7.20215C12.6161 7.23192 12.2558 7.25 11.875 7.25C11.5513 7.25 11.1891 7.23729 10.7939 7.20215C9.6318 7.09797 8.75 6.11472 8.75 4.95898V3.29297C8.75002 2.13178 9.62978 1.15176 10.7969 1.04785L11.3193 1.0127C11.4992 1.00443 11.6845 1 11.875 1ZM11.875 2.5C11.5421 2.5 11.2264 2.5158 10.9297 2.54199C10.5468 2.57608 10.25 2.89818 10.25 3.29297V4.95898C10.25 5.34916 10.549 5.67407 10.9268 5.70801L11.4238 5.74023C11.5822 5.7469 11.7328 5.75 11.875 5.75C12.2079 5.75 12.5236 5.7342 12.8203 5.70801L12.96 5.68164C13.273 5.59162 13.5 5.30231 13.5 4.95703V3.29102C13.5 2.94971 13.2711 2.6587 12.9609 2.56836L12.8232 2.54199C12.4767 2.51118 12.1591 2.5 11.875 2.5Z" fill="black"/>
</svg>

<!-- This Source Code Form is subject to the terms of the Mozilla Public
   - License, v. 2.0. If a copy of the MPL was not distributed with this
   - file, You can obtain one at http://mozilla.org/MPL/2.0/. -->
<svg xmlns="http://www.w3.org/2000/svg" width="16" height="16" fill="context-fill" fill-opacity="context-fill-opacity" viewBox="0 0 16 16">
    <path fill-rule="evenodd" d="M4.125 8.75c.324 0 .686.013 1.081.048A2.253 2.253 0 0 1 7.25 11.04v1.666a2.25 2.25 0 0 1-1.831 2.216l-.216.03a12 12 0 0 1-2.159 0A2.25 2.25 0 0 1 1 12.708v-1.666a2.25 2.25 0 0 1 2.047-2.245l.522-.035q.27-.013.556-.013m0 1.5q-.5.002-.945.042a.75.75 0 0 0-.68.751v1.666c0 .39.299.715.677.749l.497.032a11 11 0 0 0 1.396-.032l.14-.026a.75.75 0 0 0 .54-.725v-1.666a.754.754 0 0 0-.54-.723l-.137-.026a11 11 0 0 0-.948-.042" clip-rule="evenodd" />
    <path d="M11.184 9.307c.225-.576 1.158-.576 1.383 0l.502 1.284 1.336.567c.286.114.471.388.471.697 0 .31-.185.583-.472.697l-1.273.506-.563 1.344a.74.74 0 0 1-.691.474l-.002-.001a.74.74 0 0 1-.691-.473l-.502-1.284-1.336-.567a.75.75 0 0 1-.471-.697c0-.31.185-.583.472-.697l1.273-.506.062-.061z" />
    <path fill-rule="evenodd" d="M4.125 1c.324 0 .686.013 1.081.048A2.253 2.253 0 0 1 7.25 3.29v1.666a2.25 2.25 0 0 1-1.831 2.216l-.216.03a12 12 0 0 1-2.159 0A2.253 2.253 0 0 1 1 4.958V3.293a2.25 2.25 0 0 1 2.047-2.245l.522-.035Q3.84 1 4.125 1m0 1.5q-.5.002-.945.042a.75.75 0 0 0-.68.751v1.666c0 .39.299.715.677.749l.497.032a11 11 0 0 0 1.396-.032l.14-.026a.75.75 0 0 0 .54-.725V3.291a.754.754 0 0 0-.54-.723l-.137-.026q-.52-.043-.948-.042M11.875 1c.324 0 .686.013 1.081.048A2.253 2.253 0 0 1 15 3.29v1.666a2.25 2.25 0 0 1-1.831 2.216l-.216.03a12 12 0 0 1-2.16 0A2.253 2.253 0 0 1 8.75 4.958V3.293a2.25 2.25 0 0 1 2.047-2.245l.522-.035Q11.59 1 11.875 1m0 1.5q-.5.002-.945.042a.75.75 0 0 0-.68.751v1.666c0 .39.299.715.677.749l.497.032a11 11 0 0 0 1.396-.032l.14-.026a.75.75 0 0 0 .54-.725V3.291a.754.754 0 0 0-.54-.723l-.137-.026q-.52-.043-.948-.042" clip-rule="evenodd" />
</svg>
